packages/pepicons/svg/pop/cloud-up-filled.svg

<svg style="" width="20" height="20" viewBox="0 0 20 20" fill="none" xmlns="http://www.w3.org/2000/svg">
<path fill-rule="evenodd" clip-rule="evenodd" d="M11.5 14V10.6777L12.252 11.2653C12.6872 11.6053 13.3157 11.5281 13.6557 11.0929C13.9957 10.6577 13.9186 10.0293 13.4834 9.68924L11.1791 7.88897C10.9911 7.71827 10.7494 7.6299 10.5057 7.63022C10.262 7.6299 10.0203 7.71827 9.83225 7.88897L7.52801 9.68924C7.0928 10.0293 7.01564 10.6577 7.35566 11.0929C7.69568 11.5281 8.32413 11.6053 8.75933 11.2653L9.5 10.6866V14H6C3.79086 14 2 12.2091 2 10C2 7.79086 3.79086 6 6 6H6.12602C6.57006 4.27477 8.13616 3 10 3H11C12.9002 3 14.4909 4.32493 14.8987 6.10135C16.6751 6.50915 18 8.09985 18 10C18 12.2091 16.2091 14 14 14H11.5Z" fill="currentColor"/>
</svg>

<svg xmlns="http://www.w3.org/2000/svg" style="" width="20" height="20" viewBox="0 0 20 20"><path fill="currentColor" fill-rule="evenodd" d="M11.5 14v-3.322l.752.587a1 1 0 1 0 1.231-1.576l-2.304-1.8a1 1 0 0 0-.673-.259 1 1 0 0 0-.674.259l-2.304 1.8a1 1 0 0 0 1.231 1.576l.741-.578V14H6a4 4 0 1 1 0-8h.126C6.57 4.275 8.136 3 10 3h1c1.9 0 3.49 1.325 3.899 3.101A4.002 4.002 0 0 1 14 14h-2.5z"/></svg>
